!!!Genre:	Freylekhs
!!!Mode:	Freygish
!!!Listening/dance:	dance
!!!One_Mode:	yes
**kern
*thru
*part1
*staff1
*clefG2
*k[b-e-a-]
*G:frey
*M2/4
*>A
16gLL
16gJJ
=1
4g
8ddL
16ccL
16ccJJ
=2
8bnL
(>16bL
16ddJJ)
(>16ccLL
16bJ)
8a-J
=3
4g
8ddL
8ccJ
=4
8bnL
8ccJ
4dd^
=5
4g
(>16bnLL
16ddJ
8ccJ)
=6
8bnL
(>16bL
16ddJJ)
(>16ccLL
16bJ)
8a-J
=7
4g
(>16bnLL
16ddJ)
8ccJ
=8
16bnLL
16bJ
8a-J
4g
=9:|!
*>B
4.cc
8ee-
=10
2ee-
=11
4ff
4ee-
=12
4dd
4cc
=13
4ff
4gg
=14
4ff
4gg
=15
4ff
4ee-
=16
4dd
4cc
=17
4bn
4cc
=18
4dd
4cc
=19
4bn
16a-LL
16gJ
8fJ
=20
4.g
==
*-
